SVG/safety.svg

<?xml version="1.0" encoding="UTF-8"?>
<svg xmlns="http://www.w3.org/2000/svg" width="800" height="800" viewBox="0 0 24 24" fill="none">
  <path
    fill="#43D9D7"
    d="M11.2978 2.19533c.3961125-.1485575.8276734-.16712719 1.232648-.05570906l.171752.05570906 7 2.625c.7286533.27321467 1.2276818.94148693 1.2909804 1.70719646L21 6.69299v5.36271c0 3.3087353-1.814372 6.341735-4.7089968 7.9112788l-.266103.1386212-3.3541 1.677c-.3753778.1877333-.8097778.2085926-1.1982716.0571778l-.1433284-.0571778-3.35412-1.677C5.01569824 18.6258412 3.11426678 15.6466349 3.00497789 12.3557015L3 12.0557V6.69299c0-.77811067.45049511-1.48004267 1.14521784-1.80817566l.15253216-.06449434L11.2978 2.19533ZM12 4.06799 5 6.69299v5.36271c0 2.56302 1.39981647 4.9134539 3.63528667 6.1383401l.23421333.12266L12 19.882l3.1305-1.5653c2.29245-1.1461767 3.7686628-3.4493824 3.8645298-5.9966558L19 12.0557V6.69299L12 4.06799Zm3.4329 4.5611c.3906-.39053 1.0237-.39053 1.4142 0 .3605538.36048.3882888.92771503.0832047 1.3200035l-.0832047.0942065-5.2344 5.2345c-.3989143.3926714-1.0279617.4272063-1.4597522.0852797l-.0959478-.0852797-2.40415-2.4042c-.39052-.3905-.39052-1.0237 0-1.4142.36048923-.3604615.92771645-.3881893 1.32001152-.0831834l.09420848.0831834 1.76773 1.7678 4.5981-4.59811Z"
  />
</svg>
</svg>

<?xml version="1.0" encoding="UTF-8"?>
<!-- Uploaded to: SVG Repo, www.svgrepo.com, Generator: SVG Repo Mixer Tools -->
<svg width="800px" height="800px" viewBox="0 0 24 24" version="1.1" xmlns="http://www.w3.org/2000/svg" xmlns:xlink="http://www.w3.org/1999/xlink">
    <title>safety_certificate_line</title>
    <g id="页面-1" stroke="none" stroke-width="1" fill="none" fill-rule="evenodd">
        <g id="System" transform="translate(-430.000000, -192.000000)" fill-rule="nonzero">
            <g id="safety_certificate_line" transform="translate(430.000000, 192.000000)">
                <path d="M24,0 L24,24 L0,24 L0,0 L24,0 Z M12.5934901,23.257841 L12.5819402,23.2595131 L12.5108777,23.2950439 L12.4918791,23.2987469 L12.4918791,23.2987469 L12.4767152,23.2950439 L12.4056548,23.2595131 C12.3958229,23.2563662 12.3870493,23.2590235 12.3821421,23.2649074 L12.3780323,23.275831 L12.360941,23.7031097 L12.3658947,23.7234994 L12.3769048,23.7357139 L12.4804777,23.8096931 L12.4953491,23.8136134 L12.4953491,23.8136134 L12.5071152,23.8096931 L12.6106902,23.7357139 L12.6232938,23.7196733 L12.6232938,23.7196733 L12.6266527,23.7031097 L12.609561,23.275831 C12.6075724,23.2657013 12.6010112,23.2592993 12.5934901,23.257841 L12.5934901,23.257841 Z M12.8583906,23.1452862 L12.8445485,23.1473072 L12.6598443,23.2396597 L12.6498822,23.2499052 L12.6498822,23.2499052 L12.6471943,23.2611114 L12.6650943,23.6906389 L12.6699349,23.7034178 L12.6699349,23.7034178 L12.678386,23.7104931 L12.8793402,23.8032389 C12.8914285,23.8068999 12.9022333,23.8029875 12.9078286,23.7952264 L12.9118235,23.7811639 L12.8776777,23.1665331 C12.8752882,23.1545897 12.8674102,23.1470016 12.8583906,23.1452862 L12.8583906,23.1452862 Z M12.1430473,23.1473072 C12.1332178,23.1423925 12.1221763,23.1452606 12.1156365,23.1525954 L12.1099173,23.1665331 L12.0757714,23.7811639 C12.0751323,23.7926639 12.0828099,23.8018602 12.0926481,23.8045676 L12.108256,23.8032389 L12.3092106,23.7104931 L12.3186497,23.7024347 L12.3186497,23.7024347 L12.3225043,23.6906389 L12.340401,23.2611114 L12.337245,23.2485176 L12.337245,23.2485176 L12.3277531,23.2396597 L12.1430473,23.1473072 Z" id="MingCute" fill-rule="nonzero">
                <path d="M11.2978,2.19533 C11.6939125,2.0467725 12.1254734,2.02820281 12.530448,2.13962094 L12.7022,2.19533 L19.7022,4.82033 C20.4308533,5.09354467 20.9298818,5.76181693 20.9931804,6.52752646 L21,6.69299 L21,12.0557 C21,15.3644353 19.185628,18.397435 16.2910032,19.9669788 L16.0249,20.1056 L12.6708,21.7826 C12.2954222,21.9703333 11.8610222,21.9911926 11.4725284,21.8451778 L11.3292,21.7826 L7.97508,20.1056 C5.01569824,18.6258412 3.11426678,15.6466349 3.00497789,12.3557015 L3,12.0557 L3,6.69299 C3,5.91487933 3.45049511,5.21294733 4.14521784,4.88481434 L4.29775,4.82033 L11.2978,2.19533 Z M12,4.06799 L5,6.69299 L5,12.0557 C5,14.61872 6.39981647,16.9691539 8.63528667,18.1940401 L8.8695,18.3167 L12,19.882 L15.1305,18.3167 C17.42295,17.1705233 18.8991628,14.8673176 18.9950298,12.3200442 L19,12.0557 L19,6.69299 L12,4.06799 Z M15.4329,8.62909 C15.8235,8.23856 16.4566,8.23856 16.8471,8.62909 C17.2076538,8.98957 17.2353888,9.55680503 16.9303047,9.9490935 L16.8471,10.0433 L11.6127,15.2778 C11.2137857,15.6767143 10.5847383,15.7052082 10.1529478,15.3632816 L10.057,15.2778 L7.65285,12.8736 C7.26233,12.4831 7.26233,11.8499 7.65285,11.4594 C8.01333923,11.0989385 8.58056645,11.0712107 8.97286152,11.3762166 L9.06707,11.4594 L10.8348,13.2272 L15.4329,8.62909 Z" id="形状" fill="#43D9D7">
</path>
                <path d="M11.2978,2.19533 C11.6939125,2.0467725 12.1254734,2.02820281 12.530448,2.13962094 L12.7022,2.19533 L19.7022,4.82033 C20.4308533,5.09354467 20.9298818,5.76181693 20.9931804,6.52752646 L21,6.69299 L21,12.0557 C21,15.3644353 19.185628,18.397435 16.2910032,19.9669788 L16.0249,20.1056 L12.6708,21.7826 C12.2954222,21.9703333 11.8610222,21.9911926 11.4725284,21.8451778 L11.3292,21.7826 L7.97508,20.1056 C5.01569824,18.6258412 3.11426678,15.6466349 3.00497789,12.3557015 L3,12.0557 L3,6.69299 C3,5.91487933 3.45049511,5.21294733 4.14521784,4.88481434 L4.29775,4.82033 L11.2978,2.19533 Z M12,4.06799 L5,6.69299 L5,12.0557 C5,14.61872 6.39981647,16.9691539 8.63528667,18.1940401 L8.8695,18.3167 L12,19.882 L15.1305,18.3167 C17.42295,17.1705233 18.8991628,14.8673176 18.9950298,12.3200442 L19,12.0557 L19,6.69299 L12,4.06799 Z M15.4329,8.62909 C15.8235,8.23856 16.4566,8.23856 16.8471,8.62909 C17.2076538,8.98957 17.2353888,9.55680503 16.9303047,9.9490935 L16.8471,10.0433 L11.6127,15.2778 C11.2137857,15.6767143 10.5847383,15.7052082 10.1529478,15.3632816 L10.057,15.2778 L7.65285,12.8736 C7.26233,12.4831 7.26233,11.8499 7.65285,11.4594 C8.01333923,11.0989385 8.58056645,11.0712107 8.97286152,11.3762166 L9.06707,11.4594 L10.8348,13.2272 L15.4329,8.62909 Z" id="形状" fill="#43D9D7">
</path>
            </g>
        </g>
    </g>
</svg>
